dist/images/ico-play.svg

<svg xmlns="http://www.w3.org/2000/svg" xmlns:xlink="http://www.w3.org/1999/xlink" preserveAspectRatio="none" width="100" height="100" viewBox="0 0 100 100"><defs><path fill="#fff" d="M83.8 84q14-14 14-33.8 0-19.8-14-33.8-14-14-33.8-14-19.8 0-33.8 14-14 14-14 33.8 0 19.8 14 33.8 14 14 33.8 14 19.8 0 33.8-14m13-33.8q0 19.4-13.7 33.1Q69.4 97 50 97q-19.4 0-33.1-13.7Q3.2 69.6 3.2 50.2q0-19.4 13.7-33.1Q30.6 3.4 50 3.4q19.4 0 33.1 13.7 13.7 13.7 13.7 33.1m-25.65-1.25L42.55 26.7q-.55-.4-1.2-.35-.65.05-1.1.55-.45.5-.45 1.15v44.8q0 .65.45 1.15.45.5 1.15.55.65.05 1.15-.35l28.6-22.55q.4-.35.6-.85.15-.5 0-1-.2-.5-.6-.85m-3.8 1.4l-24.15 19v-37.8l24.15 18.8z" id="a"/></defs><use xlink:href="#a"/></svg>

<svg xmlns="http://www.w3.org/2000/svg" version="1.1" xmlns:xlink="http://www.w3.org/1999/xlink" preserveAspectRatio="none" x="0px" y="0px" width="100px" height="100px" viewBox="0 0 100 100">
<defs>
<g id="Layer0_0_FILL">
<path fill="#ffffff" stroke="none" d="
M 83.8 84
Q 97.8 70 97.8 50.2 97.8 30.4 83.8 16.4 69.8 2.4 50 2.4 30.2 2.4 16.2 16.4 2.2 30.4 2.2 50.2 2.2 70 16.2 84 30.2 98 50 98 69.8 98 83.8 84
M 96.8 50.2
Q 96.8 69.6 83.1 83.3 69.4 97 50 97 30.6 97 16.9 83.3 3.2 69.6 3.2 50.2 3.2 30.8 16.9 17.1 30.6 3.4 50 3.4 69.4 3.4 83.1 17.1 96.8 30.8 96.8 50.2
M 71.15 48.95
L 42.55 26.7
Q 42 26.3 41.35 26.35 40.7 26.4 40.25 26.9 39.8 27.4 39.8 28.05
L 39.8 72.85
Q 39.8 73.5 40.25 74 40.7 74.5 41.4 74.55 42.05 74.6 42.55 74.2
L 71.15 51.65
Q 71.55 51.3 71.75 50.8 71.9 50.3 71.75 49.8 71.55 49.3 71.15 48.95
M 67.35 50.35
L 43.2 69.35 43.2 31.55 67.35 50.35 Z"/>
</g>
</defs>

<g transform="matrix( 1, 0, 0, 1, 0,0) ">
<use xlink:href="#Layer0_0_FILL"/>
</g>
</svg>
